dist/intermediate-svg/export.svg

<?xml version="1.0" encoding="utf-8"?><svg width="17" height="15" fill="none" xmlns="http://www.w3.org/2000/svg" viewBox="0 0 17 15"><path d="M16.1415 8.45891C16.1415 9.50781 15.7336 10.5567 15.0343 11.3725C14.2768 12.2466 13.1113 12.538 12.3538 12.538H11.7711V10.7898H12.3538C12.7617 10.7898 13.4027 10.615 13.7523 10.2071C14.1602 9.74091 14.4516 9.09991 14.4516 8.45891C14.4516 6.82728 13.1696 5.54528 11.538 5.54528C11.4214 5.54528 10.9552 5.60353 10.6639 5.6618C10.5473 5.6618 10.3725 5.6035 10.3725 5.48695L10.256 5.13741C9.78979 3.79714 8.6826 2.80653 7.28406 2.68999C5.18625 2.4569 3.43809 4.1468 3.43809 6.18634C3.43809 6.41943 3.49635 6.71073 3.55463 7.0021L3.67118 7.52649C3.72945 7.70131 3.6129 7.81791 3.49635 7.87618L2.9719 8.05103C2.21436 8.28412 1.74818 8.92506 1.74818 9.74088C1.74818 9.97397 1.80646 10.207 1.98128 10.4401C2.1561 10.6732 2.62227 10.9063 3.03018 10.9063H4.37044V12.6545H3.03018C2.03954 12.6545 1.04891 12.1883 0.582725 11.4891C0.23309 10.9646 0 10.3819 0 9.74088C0 8.45888 0.69927 7.29346 1.74818 6.71073C1.74818 6.53592 1.74818 6.41934 1.74818 6.24453C1.74818 3.3309 4.07908 1 6.9927 1C8.97397 1 10.8387 2.16545 11.7128 3.91363C14.0437 3.79708 16.1415 5.89492 16.1415 8.45891ZM10.1977 11.3725H8.85743V8.16755C8.85743 7.99273 8.74088 7.87618 8.56607 7.87618H7.40062C7.2258 7.87618 7.10925 7.99273 7.10925 8.16755V11.3725H5.76899C5.5359 11.3725 5.41934 11.6639 5.53589 11.8387L7.75025 14.8689C7.8668 15.0437 8.09988 15.0437 8.21643 14.8689L10.4308 11.8387C10.5473 11.6639 10.4308 11.3725 10.1977 11.3725Z" fill="#fff"/><path d="M16.1415 7.45891C16.1415 8.50781 15.7336 9.55672 15.0343 10.3725C14.2768 11.2466 13.1113 11.538 12.3538 11.538H11.7711V9.78981H12.3538C12.7617 9.78981 13.4027 9.61499 13.7523 9.20709C14.1602 8.74091 14.4516 8.09991 14.4516 7.45891C14.4516 5.82728 13.1696 4.54528 11.538 4.54528C11.4214 4.54528 10.9552 4.60353 10.6639 4.6618C10.5473 4.6618 10.3725 4.6035 10.3725 4.48695L10.256 4.13741C9.78979 2.79714 8.6826 1.80653 7.28406 1.68999C5.18625 1.4569 3.43809 3.1468 3.43809 5.18634C3.43809 5.41943 3.49635 5.71073 3.55463 6.0021L3.67118 6.52649C3.72945 6.70131 3.6129 6.81791 3.49635 6.87618L2.9719 7.05103C2.21436 7.28412 1.74818 7.92506 1.74818 8.74088C1.74818 8.97397 1.80646 9.20703 1.98128 9.44012C2.1561 9.67321 2.62227 9.90633 3.03018 9.90633H4.37044V11.6545H3.03018C2.03954 11.6545 1.04891 11.1883 0.582725 10.4891C0.23309 9.9646 0 9.38187 0 8.74088C0 7.45888 0.69927 6.29346 1.74818 5.71073C1.74818 5.53592 1.74818 5.41934 1.74818 5.24453C1.74818 2.3309 4.07908 0 6.9927 0C8.97397 0 10.8387 1.16545 11.7128 2.91363C14.0437 2.79708 16.1415 4.89492 16.1415 7.45891ZM10.1977 10.3725H8.85743V7.16755C8.85743 6.99273 8.74088 6.87618 8.56607 6.87618H7.40062C7.2258 6.87618 7.10925 6.99273 7.10925 7.16755V10.3725H5.76899C5.5359 10.3725 5.41934 10.6639 5.53589 10.8387L7.75025 13.8689C7.8668 14.0437 8.09988 14.0437 8.21643 13.8689L10.4308 10.8387C10.5473 10.6639 10.4308 10.3725 10.1977 10.3725Z" fill="#1E6393"/></svg>

<?xml version="1.0" encoding="utf-8"?><svg width="17" height="15" fill="none" xmlns="http://www.w3.org/2000/svg" viewBox="0 0 17 15"><path d="M16.142 8.459c0 1.049-.408 2.098-1.108 2.914-.757.874-1.923 1.165-2.68 1.165h-.583V10.79h.583c.408 0 1.049-.175 1.398-.583.408-.466.7-1.107.7-1.748a2.885 2.885 0 00-2.914-2.914c-.117 0-.583.059-.874.117-.117 0-.291-.058-.291-.175l-.117-.35c-.466-1.34-1.573-2.33-2.972-2.447-2.098-.233-3.846 1.457-3.846 3.496 0 .233.058.525.117.816l.116.524c.058.175-.058.292-.175.35l-.524.175c-.758.233-1.224.874-1.224 1.69 0 .233.058.466.233.7.175.232.641.465 1.05.465h1.34v1.748H3.03c-.991 0-1.982-.466-2.448-1.165C.233 10.965 0 10.382 0 9.741c0-1.282.7-2.448 1.748-3.03v-.466A5.223 5.223 0 016.993 1c1.981 0 3.846 1.165 4.72 2.914 2.33-.117 4.429 1.98 4.429 4.545zm-5.944 2.914h-1.34V8.168c0-.175-.117-.292-.292-.292H7.401c-.175 0-.292.117-.292.292v3.205H5.77c-.233 0-.35.29-.233.466l2.214 3.03c.117.175.35.175.466 0l2.215-3.03c.116-.175 0-.466-.233-.466z" fill="#fff"/><path d="M16.142 7.459c0 1.049-.408 2.098-1.108 2.914-.757.874-1.923 1.165-2.68 1.165h-.583V9.79h.583c.408 0 1.049-.175 1.398-.583.408-.466.7-1.107.7-1.748a2.885 2.885 0 00-2.914-2.914c-.117 0-.583.059-.874.117-.117 0-.291-.058-.291-.175l-.117-.35c-.466-1.34-1.573-2.33-2.972-2.447-2.098-.233-3.846 1.457-3.846 3.496 0 .233.058.525.117.816l.116.524c.058.175-.058.292-.175.35l-.524.175c-.758.233-1.224.874-1.224 1.69 0 .233.058.466.233.7.175.232.641.465 1.05.465h1.34v1.748H3.03c-.991 0-1.982-.466-2.448-1.165C.233 9.965 0 9.382 0 8.741c0-1.282.7-2.448 1.748-3.03v-.466A5.223 5.223 0 016.993 0c1.981 0 3.846 1.165 4.72 2.914 2.33-.117 4.429 1.98 4.429 4.545zm-5.944 2.914h-1.34V7.168c0-.175-.117-.292-.292-.292H7.401c-.175 0-.292.117-.292.292v3.205H5.77c-.233 0-.35.29-.233.466l2.214 3.03c.117.175.35.175.466 0l2.215-3.03c.116-.175 0-.466-.233-.466z" fill="#1E6393"/></svg>
